X: 17017
T: Hear The Heather Bleat
R: polka
M: 2/4
K: Gmajor
|:B2 B A/B/|dB AG|DA A>B|cB AG|
B2 B A/B/|dB AG|AB/c/ BA|1 GD GA:|2 G2 Bd||
|:ga/g/ fg/f/|ed BG|A>B c>d|ed Bd|
gd fd|ed BG|A> Bc BA|1 GD G2:|2 G2 G2||

